X:1
T:Intenerite voi
T:Intenerite voi
T:Piero Benedetti
T:Source : Musische di P.Benedetti---Libro secondo---Venetia---R.Amadino---1613. Editor : André Vierendeels (19/06/15).
T:Notes : Original clefs : C1, F4 Editorial accidentals above the staff Figures in BC are notated in original print Editorial suggestion: to sing by two Sopranos Composer called "Pietro" in this book
T:S 2
T:S 1
C:Piero Benedetti
%%score 1 2
L:1/8
Q:1/4=70
M:4/4
K:F
V:1 treble nm="Soprano    1 + 2" snm="S"
V:2 bass nm="BC" snm="BC"
V:1
 d6 BB | A2 G2 A4 ||[K:C] e6 AB | ^G4 G4 | A6 FF | E2 D2 E4 | z2 A2 _B4- | B4 =B3 c | A3 ^G A4 | %9
w: In- te- ne-|ri- te voi.|In- te- ne-|ri- te,|in- te- ne-|ri- te voi|qiel du-|* * ro|co- re, _|
 z2 d2 B4 | z2 B2 c4- | c2 B2 A4 | G8 ||[K:F]"^S 2" z2 d2 G3 A | c2 G/4A/4B/4c/4d/c/ c3 B- | c8 | %16
w: ch'in van|per- cos-|* se'a- mo-|re,|ver- sat' à|mil- le'à- * * * * * mil- le,|_|
 d6 ^FF | A3 G A/G/^F/E/ D/E/F/4G/4A/4B/4 | c/B/A/B/ c/d/e/c/ d3 c | _e4 d3 A | A8 | G8 || %22
w: Fa- te di|pian- t'un mar _ _ _ _ _ _ _ _ _|_ _ _ _ _ _ _ _ _ do-|len- * ti|stil-|le.|
[K:C]"^S 1" z EFG A2 G2 | z ^FFF GAGA | BBBc d2 cd | e8 | z2 c2 c4- | c3 A G4 | F8 | z2 AA A4- | %30
w: O quel mio va- go|sco- glio d'al- te- rez- ze d'or-|go- glio ri- per- cos- so da|voi|men du-|* ro si-|a,|O se n'es-|
 A2 GA E4 | F6 EE | E8 | D8 | z2 ee e4- | e2 de B4 | c6 BB | B8 | A8 | z EFG A2 G2 | ^FFFG A2 GA | %41
w: * ca con voi|l'a- ni- ma|mi-|a,|O se n'es-|* ce con voi|l'a- ni- ma|mi-|a,|O quel mio va- go|sco- glio d'al- te- rez- za'e d'or-|
 BBBc d2 cd | e8 | z2 c2 c4- | c3 A G4 | F8 | z2 AA A4- | A2 GA E4 | F6 EE | E8 | D8 | z2 ee e4- | %52
w: go- glio re- per- cos- so da|voi|men du-|* ro si-|a,|O se n'es-|* ca con voi|l'a- ni- ma|mi-|a,|O se n'es-|
 e2 de B4 | c6 BB | B8 | A8 | _B6 AA | A8 | G8 |] %59
w: * ca con voi|l'a- ni- ma|mi-|a,|l'a- ni- ma|mi-|a.|
V:2
"^#" D,2 E,2 ^F,2 G,2 |"^#" _E,4 D,4 ||[K:C] A,,4 F,4 | E,8 | A,,2 B,,2 ^C,2 D,2 | B,,4 A,,4 | %6
"^#" D,4 G,4- | G,2 F,2 E,4 |"^#" E,4 A,,4 |"^#" D,4 G,4 | G,,4 C,E,F,A, | %11
"^#""^4" F,C, G,,B,, D,2 D,2 | G,,8 ||[K:F] G,8 |"^4" _E,4 F,4 | F,8 | B,,2 C,2 D,4- | %17
"^#" D,2 _E,2 D,4 | A,,4 B,,4 | C,4 =B,,4 |"^4""^#" D,4 D,4 | G,,8 ||[K:C] A,,8 | D,8 | G,4 G,4 | %25
 C,2 A,2 ^G,2 A,2 | E,2 F,2 E,2 F,2 |"^3    4          3" C,2 C,4 C,2 | F,,8 | D,6 ^C,D, | %30
"^#""^4""^#" A,,2 A,,2 A,,4 |"^#" A,,4 G,,2 ^F,,2 |"^4""^#" A,,4 A,,4 |"^#" D,8 | A,6 ^G,A, | %35
"^#""^4""^#" E,2 E,2 E,4 |"^#" E,4 D,2 ^C,2 |"^4""^#" E,4 E,4 | A,,8 | A,,8 | D,8 | G,4 G,4 | %42
 C,2 A,2 ^G,2 A,2 | E,2 F,2 E,2 F,2 |"^3    4         3" C,2 C,4 C,2 | F,,8 | D,6 ^C,D, | %47
"^#""^4""^#" A,,2 A,,2 A,,4 | A,,4 G,,2 ^F,,2 |"^4""^#" A,,4 A,,4 | D,8 | A,6 ^G,A, | %52
"^#""^4""^#" E,2 E,2 E,4 |"^#" E,4 D,2 C,2 |"^#""^4" E,4 E,4 | A,,8 | D,4 C,2 B,,2 | %57
"^4""^#" D,4 D,4 | G,,8 |] %59

